X: 19581
T: James Plunkett
R: polka
M: 2/4
K: Gmajor
GG/G/ gg/f/|ee/d/ BB/d/|e/f/g/e/ e/d/c/B/|A/B/A/G/ ED|
G/A/B/G/ gf/g/|e/f/e/d/ B>d|e/f/g/e/ dc/B/|(3A/B/c/ B/A/ GG||
G/G/g G/G/g|a/g/f/e/ e/d/c/B/|e/f/g/e/ e/d/c/B/|ABAG ED|
GG gf/g/|ee/d/ Bd/d/|e/f/g/e/ dc/B/|(3A/B/c/ B/A/ GG||

